omega/mobile/images/sports/badm.svg

<svg height="512" viewBox="0 0 512 512" width="512" xmlns="http://www.w3.org/2000/svg"><path d="m121 247s25-37 25-37 84.33-125 84.33-125 25-37 25-37c2.05-3.06 7.68-12.65 10.76-13.76 3.25-1.16 8.28 3.01 10.91 4.76-2.18 5.7-6.28 10.92-9.67 16 0 0-19 28-19 28-2.1 3.15-10.15 13.75-9.61 17 .47 2.8 4.23 5.64 6.28 7.42 0 0 17 15.58 17 15.58s44-59 44-59 11 7 11 7-15.37 22-15.37 22-29.63 39-29.63 39 28 25 28 25c2.58-5.57 8.08-11.21 12.08-16 0 0 22.67-27 22.67-27 2.2-2.64 10.91-13.94 13.42-14.67 3.72-1.08 8.88 5.07 10.83 7.67 0 0-50 59-50 59 5.1 2.41 10.68 8.11 15 12 1.77 1.59 4.4 4.37 7 4.12 2.9-.28 10.57-9.59 12.91-12.12 0 0 34.51-37.94 34.51-37.94 6.97-7.18 13.55 2.5 12.43 5.94-1.13 3.46-10.7 12.75-13.57 16 0 0-36.28 40-36.28 40s29 25 29 25 44-46 44-46c5.47-5.47 9.87-13.23 16.84-4.98.69.83 1.55 1.9 1.82 2.98 1.01 4-8.85 12.19-11.66 15 0 0-42 42-42 42 6.74 4.68 12.95 10.54 19 16.08 1.95 1.79 5.11 5.5 8 5.16 2.49-.29 9.63-7.61 12-9.66 0 0 33-30 33-30 5.92-5.15 13.35-16.68 19.8-5.58 3.19 5.5-4.13 10.48-7.8 13.72 0 0-35 31.7-35 31.7s-75 68.41-75 68.41-51 46.2-51 46.2-30 27.25-30 27.25c-2.88 2.54-7.89 8.97-12 7.55-1.81-.62-10.86-8.98-13-10.88 0 0-29-25.79-29-25.79s-67-59.32-67-59.32-42-36.84-42-36.84c2.04-5.26 8.56-13.85 12-19zm93-114c-1.51 2.27-5.34 7.22-4.99 9.91.31 2.33 3.35 4.64 4.99 6.16 4.8 4.44 12.03 11.89 18 13.93 0 0 23-31 23-31s-24-22-24-22c-5.96 4.69-12.56 16.33-17 23zm50 8s-15.37 21-15.37 21c-1.42 1.88-5.72 7.06-6.16 9-.82 3.63 3.2 6.21 5.53 8.28 5.56 4.94 13.13 13.38 20 15.72 0 0 24-30 24-30-5.31-5.27-22.18-21.25-28-24zm-66 50.07c1.68 1.51 4.53 4.56 6.91 4.59 2.17.04 3.74-2.17 4.96-3.68 0 0 10.53-13.98 10.53-13.98 1.19-1.65 2.91-3.63 2.27-5.83-.51-1.77-4.24-4.85-5.67-6.17-4.67-4.29-11.16-11.01-17-13 0 0-16 26-16 26 4.93 3.53 9.47 8 14 12.07zm85.41 4.93c-1.82 2.2-5.66 5.94-4.96 9 .56 2.4 3.76 4.86 5.55 6.42 5.07 4.43 7.12 6.85 13 10.58 5.94-5.94 22.86-23.32 26-30 0 0-20-18-20-18-5.81 4.53-14.53 15.9-19.59 22zm-50.41-14s-11 15-11 15c-1.48 1.89-4.71 5.64-4.96 8-.34 3.17 2.85 5.81 4.96 7.72 5.83 5.24 11.55 10.8 18 15.28 4.77-5.2 17.24-18.94 19-25 0 0-26-21-26-21zm-66.33 21s-2.8 7-2.8 7 5.13 6.42 5.13 6.42 14 11.58 14 11.58c4.32-6.83 13.03-15.76 15-23 0 0-20-18-20-18s-11.33 16-11.33 16zm147.05 20s-5.52 7.99-5.52 7.99 5.8 7.17 5.8 7.17 20 16.84 20 16.84 19-19 19-19 6.8-8.91 6.8-8.91-5.8-7.09-5.8-7.09-20-18-20-18-20.28 21-20.28 21zm-57.85 6c-1.62 1.9-4.96 5.26-4.76 7.91.18 2.49 5.05 6.35 6.89 8.07 2.09 1.95 7.06 6.91 10 6.84 2.55-.06 5.22-3.08 6.83-4.82 4.95-5.36 10.26-10.84 14.17-17 0 0-19-17-19-17-4.72 4.13-9.89 11.03-14.13 16zm-63.87 8s15 13.08 15 13.08c1.69 1.55 4.8 4.87 6.96 5.43 2.41.63 3.79-1.01 5.29-2.58 2.66-2.81 12.39-13.29 11.42-16.92-.66-2.45-4.76-5.46-6.67-7.18 0 0-15-13.83-15-13.83s-17 22-17 22zm-45.18-3.01c-.15 3.8 9.19 10.91 12.18 13.23 1.61 1.25 3.61 3.08 5.83 2.44 1.78-.5 3.7-3.23 4.8-4.66 1.45-1.91 4.45-5.51 4.26-7.99-.19-2.6-3.1-4.68-4.89-6.29-4.68-4.19-8.18-8.1-14-10.72-1.8 2.88-8.07 11.2-8.18 13.99zm204.18 22.01c-1.77 1.79-5.8 5.33-5.8 7.96 0 2.88 8.47 9.6 10.8 11.62 2.64 2.29 8.64 8.84 12 8.52 2.83-.26 7.91-5.17 10-7.13 0 0 19-16.97 19-16.97v-2s-25-22-25-22c-5.98 4.28-15.43 14.39-21 20zm-32 14c1.56-1.6 4.8-4.53 4.8-6.91 0-2.83-8.51-9.53-10.8-11.51-2.73-2.37-10.63-10.48-13.96-10.4-2.63.07-5.43 4-7.13 5.82-4.85 5.18-9.8 10.18-13.91 16 0 0 26 22 26 22s15-15 15-15zm-163.17-8c.44-2.88-1.95-4.96-3.85-6.72-4.23-3.92-8.57-8.16-13.98-10.28 0 0-11 19-11 19s18 14 18 14c1.98-3.14 10.5-13.8 10.83-16zm20.28-2c.19 2.65 3.05 4.94 4.89 6.58 5.13 4.53 10.43 9.49 16 13.42 0 0 11-15 11-15s-22-19-22-19c-2.84 2.36-10.17 10.21-9.89 14zm54.65-1c-1.48 1.82-3.98 4.47-3.73 6.99.28 2.88 4.88 6.19 6.97 8.08 2.05 1.86 5.96 6.04 8.91 5.82 2.49-.18 6.34-5.05 8.09-6.89 2.11-2.22 7.89-7.87 7.82-10.99-.06-2.32-2.28-4.01-3.84-5.43 0 0-11.98-10.58-11.98-10.58-4.86 3.55-8.46 8.35-12.24 13zm-76.76 29c6.55 4.96 14.68 14.51 22 17 0 0 13-17 13-17s-21-19-21-19-14 19-14 19zm105-5c-1.61 1.7-4.63 4.49-4.66 6.99-.05 3.05 7.3 8.74 9.66 10.85 2.41 2.15 10.22 9.79 13 9.82 2.31.04 4.21-2.07 5.68-3.59 3.94-4.09 10-10.16 12.32-15.07 0 0-24-21-24-21-5.12 3.7-7.72 7.46-12 12zm61 4c-1.63 1.67-4.8 4.51-4.8 7 0 3.4 6.36 7.99 8.8 10.16 2.59 2.32 8.56 8.59 12 8.75 2.89.12 6.05-3.11 8-4.95 5.1-4.82 10.9-9.25 15-14.96 0 0-23-21-23-21-5.38 3.85-11.27 10.17-16 15zm-103-12c-1.8 2.4-8.24 9.77-8.7 12-.98 4.71 11.83 13.92 15.7 16 0 0 11-14 11-14s-18-14-18-14zm-100 8.17s21 18.83 21 18.83 45 40.17 45 40.17 35 31.41 35 31.41 25 22.35 25 22.35c2.45 2.24 7.17 5.24 5.83 9.07-.72 2.08-4.91 6.14-6.55 8 0 0-13.3 15-13.3 15-5.88 6.31-11.29 13.03-17.98 18.54-16.26 13.38-34.16 20.09-55 21.55-3.44.24-5.4.98-9 .73-17.48-1.24-29.31-3.96-45-12.08-38.38-19.85-57.18-66.46-47.1-107.74 5.06-20.73 14.77-34.6 29.12-50 5.4-5.79 15.91-19.35 21.98-22.66 4.55.19 7.68 3.84 11 6.83zm69.32 29.83c-.88 3.89 11.11 14.59 14.64 13.66 1.97-.51 4-3.2 5.32-4.66 3.47-3.86 6.66-6.73 9.72-11 0 0-16-14-16-14-3.06 2.39-12.89 12.52-13.68 16zm57.68-14c-2.47 3.45-10.29 9.99-8.83 13.91.87 2.35 13.16 12.69 15.83 14.92 1.61 1.33 3.76 3.22 6 3.06 4.2-.29 10.31-8.32 12-11.89 0 0-25-20-25-20zm43 22s22 19 22 19 12.98-12.09 12.98-12.09 3.82-5.87 3.82-5.87-4.8-6.21-4.8-6.21-15-13.83-15-13.83c-6.39 4.57-14.43 12.61-19 19zm-74.84 16c.11 2.64 3.02 4.96 4.84 6.58 5.13 4.53 10.43 9.49 16 13.42 0 0 16-17 16-17s-23-20-23-20c-3.11 2.71-14.01 13.16-13.84 17zm73.84-2.42c-1.71-1.45-4.62-4.29-6.96-4.24-3.26.06-10.13 8.99-12.04 11.66 0 0 13 11.15 13 11.15 1.75 1.53 4.55 4.48 7 4.51 3.28.05 10.92-7.99 13-10.66 0 0-14-12.42-14-12.42zm-30 43.45c2.07 1.74 4.07 3.82 7 2.8 1.75-.6 12.38-10.22 13.46-11.92.33-1.03.5-1.76 0-2.91-.48-2.66-5.36-6.29-7.46-8.16-2.31-2.07-6.74-6.95-10-6.73-4.33.29-14.14 11.96-16 15.89 0 0 13 11.03 13 11.03z"/></svg>

<?xml version="1.0" encoding="UTF-8" standalone="no"?>
<!DOCTYPE svg PUBLIC "-//W3C//DTD SVG 20010904//EN"
              "http://www.w3.org/TR/2001/REC-SVG-20010904/DTD/svg10.dtd">

<svg xmlns="http://www.w3.org/2000/svg"
     width="512px" height="512px"
     viewBox="0 0 512 512">
  <path id="Selection"
        fill="black"
        d="M 121.00,247.00
           C 121.00,247.00 146.00,210.00 146.00,210.00
             146.00,210.00 230.33,85.00 230.33,85.00
             230.33,85.00 255.33,48.00 255.33,48.00
             257.38,44.94 263.01,35.35 266.09,34.24
             269.34,33.08 274.37,37.25 277.00,39.00
             274.82,44.70 270.72,49.92 267.33,55.00
             267.33,55.00 248.33,83.00 248.33,83.00
             246.23,86.15 238.18,96.75 238.72,100.00
             239.19,102.80 242.95,105.64 245.00,107.42
             245.00,107.42 262.00,123.00 262.00,123.00
             262.00,123.00 306.00,64.00 306.00,64.00
             306.00,64.00 317.00,71.00 317.00,71.00
             317.00,71.00 301.63,93.00 301.63,93.00
             301.63,93.00 272.00,132.00 272.00,132.00
             272.00,132.00 300.00,157.00 300.00,157.00
             302.58,151.43 308.08,145.79 312.08,141.00
             312.08,141.00 334.75,114.00 334.75,114.00
             336.95,111.36 345.66,100.06 348.17,99.33
             351.89,98.25 357.05,104.40 359.00,107.00
             359.00,107.00 309.00,166.00 309.00,166.00
             314.10,168.41 319.68,174.11 324.00,178.00
             325.77,179.59 328.40,182.37 331.00,182.12
             333.90,181.84 341.57,172.53 343.91,170.00
             343.91,170.00 378.42,132.06 378.42,132.06
             385.39,124.88 391.97,134.56 390.85,138.00
             389.72,141.46 380.15,150.75 377.28,154.00
             377.28,154.00 341.00,194.00 341.00,194.00
             341.00,194.00 370.00,219.00 370.00,219.00
             370.00,219.00 414.00,173.00 414.00,173.00
             419.47,167.53 423.87,159.77 430.84,168.02
             431.53,168.85 432.39,169.92 432.66,171.00
             433.67,175.00 423.81,183.19 421.00,186.00
             421.00,186.00 379.00,228.00 379.00,228.00
             385.74,232.68 391.95,238.54 398.00,244.08
             399.95,245.87 403.11,249.58 406.00,249.24
             408.49,248.95 415.63,241.63 418.00,239.58
             418.00,239.58 451.00,209.58 451.00,209.58
             456.92,204.43 464.35,192.90 470.80,204.00
             473.99,209.50 466.67,214.48 463.00,217.72
             463.00,217.72 428.00,249.42 428.00,249.42
             428.00,249.42 353.00,317.83 353.00,317.83
             353.00,317.83 302.00,364.03 302.00,364.03
             302.00,364.03 272.00,391.28 272.00,391.28
             269.12,393.82 264.11,400.25 260.00,398.83
             258.19,398.21 249.14,389.85 247.00,387.95
             247.00,387.95 218.00,362.16 218.00,362.16
             218.00,362.16 151.00,302.84 151.00,302.84
             151.00,302.84 109.00,266.00 109.00,266.00
             111.04,260.74 117.56,252.15 121.00,247.00 Z
           M 214.00,133.00
           C 212.49,135.27 208.66,140.22 209.01,142.91
             209.32,145.24 212.36,147.55 214.00,149.07
             218.80,153.51 226.03,160.96 232.00,163.00
             232.00,163.00 255.00,132.00 255.00,132.00
             255.00,132.00 231.00,110.00 231.00,110.00
             225.04,114.69 218.44,126.33 214.00,133.00 Z
           M 264.00,141.00
           C 264.00,141.00 248.63,162.00 248.63,162.00
             247.21,163.88 242.91,169.06 242.47,171.00
             241.65,174.63 245.67,177.21 248.00,179.28
             253.56,184.22 261.13,192.66 268.00,195.00
             268.00,195.00 292.00,165.00 292.00,165.00
             286.69,159.73 269.82,143.75 264.00,141.00 Z
           M 198.00,191.07
           C 199.68,192.58 202.53,195.63 204.91,195.66
             207.08,195.70 208.65,193.49 209.87,191.98
             209.87,191.98 220.40,178.00 220.40,178.00
             221.59,176.35 223.31,174.37 222.67,172.17
             222.16,170.40 218.43,167.32 217.00,166.00
             212.33,161.71 205.84,154.99 200.00,153.00
             200.00,153.00 184.00,179.00 184.00,179.00
             188.93,182.53 193.47,187.00 198.00,191.07 Z
           M 283.41,196.00
           C 281.59,198.20 277.75,201.94 278.45,205.00
             279.01,207.40 282.21,209.86 284.00,211.42
             289.07,215.85 291.12,218.27 297.00,222.00
             302.94,216.06 319.86,198.68 323.00,192.00
             323.00,192.00 303.00,174.00 303.00,174.00
             297.19,178.53 288.47,189.90 283.41,196.00 Z
           M 233.00,182.00
           C 233.00,182.00 222.00,197.00 222.00,197.00
             220.52,198.89 217.29,202.64 217.04,205.00
             216.70,208.17 219.89,210.81 222.00,212.72
             227.83,217.96 233.55,223.52 240.00,228.00
             244.77,222.80 257.24,209.06 259.00,203.00
             259.00,203.00 233.00,182.00 233.00,182.00 Z
           M 166.67,203.00
           C 166.67,203.00 163.87,210.00 163.87,210.00
             163.87,210.00 169.00,216.42 169.00,216.42
             169.00,216.42 183.00,228.00 183.00,228.00
             187.32,221.17 196.03,212.24 198.00,205.00
             198.00,205.00 178.00,187.00 178.00,187.00
             178.00,187.00 166.67,203.00 166.67,203.00 Z
           M 313.72,223.00
           C 313.72,223.00 308.20,230.99 308.20,230.99
             308.20,230.99 314.00,238.16 314.00,238.16
             314.00,238.16 334.00,255.00 334.00,255.00
             334.00,255.00 353.00,236.00 353.00,236.00
             353.00,236.00 359.80,227.09 359.80,227.09
             359.80,227.09 354.00,220.00 354.00,220.00
             354.00,220.00 334.00,202.00 334.00,202.00
             334.00,202.00 313.72,223.00 313.72,223.00 Z
           M 255.87,229.00
           C 254.25,230.90 250.91,234.26 251.11,236.91
             251.29,239.40 256.16,243.26 258.00,244.98
             260.09,246.93 265.06,251.89 268.00,251.82
             270.55,251.76 273.22,248.74 274.83,247.00
             279.78,241.64 285.09,236.16 289.00,230.00
             289.00,230.00 270.00,213.00 270.00,213.00
             265.28,217.13 260.11,224.03 255.87,229.00 Z
           M 192.00,237.00
           C 192.00,237.00 207.00,250.08 207.00,250.08
             208.69,251.63 211.80,254.95 213.96,255.51
             216.37,256.14 217.75,254.50 219.25,252.93
             221.91,250.12 231.64,239.64 230.67,236.01
             230.01,233.56 225.91,230.55 224.00,228.83
             224.00,228.83 209.00,215.00 209.00,215.00
             209.00,215.00 192.00,237.00 192.00,237.00 Z
           M 146.82,233.99
           C 146.67,237.79 156.01,244.90 159.00,247.22
             160.61,248.47 162.61,250.30 164.83,249.66
             166.61,249.16 168.53,246.43 169.63,245.00
             171.08,243.09 174.08,239.49 173.89,237.01
             173.70,234.41 170.79,232.33 169.00,230.72
             164.32,226.53 160.82,222.62 155.00,220.00
             153.20,222.88 146.93,231.20 146.82,233.99 Z
           M 351.00,256.00
           C 349.23,257.79 345.20,261.33 345.20,263.96
             345.20,266.84 353.67,273.56 356.00,275.58
             358.64,277.87 364.64,284.42 368.00,284.10
             370.83,283.84 375.91,278.93 378.00,276.97
             378.00,276.97 397.00,260.00 397.00,260.00
             397.00,260.00 397.00,258.00 397.00,258.00
             397.00,258.00 372.00,236.00 372.00,236.00
             366.02,240.28 356.57,250.39 351.00,256.00 Z
           M 319.00,270.00
           C 320.56,268.40 323.80,265.47 323.80,263.09
             323.80,260.26 315.29,253.56 313.00,251.58
             310.27,249.21 302.37,241.10 299.04,241.18
             296.41,241.25 293.61,245.18 291.91,247.00
             287.06,252.18 282.11,257.18 278.00,263.00
             278.00,263.00 304.00,285.00 304.00,285.00
             304.00,285.00 319.00,270.00 319.00,270.00 Z
           M 155.83,262.00
           C 156.27,259.12 153.88,257.04 151.98,255.28
             147.75,251.36 143.41,247.12 138.00,245.00
             138.00,245.00 127.00,264.00 127.00,264.00
             127.00,264.00 145.00,278.00 145.00,278.00
             146.98,274.86 155.50,264.20 155.83,262.00 Z
           M 176.11,260.00
           C 176.30,262.65 179.16,264.94 181.00,266.58
             186.13,271.11 191.43,276.07 197.00,280.00
             197.00,280.00 208.00,265.00 208.00,265.00
             208.00,265.00 186.00,246.00 186.00,246.00
             183.16,248.36 175.83,256.21 176.11,260.00 Z
           M 230.76,259.00
           C 229.28,260.82 226.78,263.47 227.03,265.99
             227.31,268.87 231.91,272.18 234.00,274.07
             236.05,275.93 239.96,280.11 242.91,279.89
             245.40,279.71 249.25,274.84 251.00,273.00
             253.11,270.78 258.89,265.13 258.82,262.01
             258.76,259.69 256.54,258.00 254.98,256.58
             254.98,256.58 243.00,246.00 243.00,246.00
             238.14,249.55 234.54,254.35 230.76,259.00 Z
           M 154.00,288.00
           C 160.55,292.96 168.68,302.51 176.00,305.00
             176.00,305.00 189.00,288.00 189.00,288.00
             189.00,288.00 168.00,269.00 168.00,269.00
             168.00,269.00 154.00,288.00 154.00,288.00 Z
           M 259.00,283.00
           C 257.39,284.70 254.37,287.49 254.34,289.99
             254.29,293.04 261.64,298.73 264.00,300.84
             266.41,302.99 274.22,310.63 277.00,310.66
             279.31,310.70 281.21,308.59 282.68,307.07
             286.62,302.98 292.68,296.91 295.00,292.00
             295.00,292.00 271.00,271.00 271.00,271.00
             265.88,274.70 263.28,278.46 259.00,283.00 Z
           M 320.00,287.00
           C 318.37,288.67 315.20,291.51 315.20,294.00
             315.20,297.40 321.56,301.99 324.00,304.16
             326.59,306.48 332.56,312.75 336.00,312.91
             338.89,313.03 342.05,309.80 344.00,307.96
             349.10,303.14 354.90,298.71 359.00,293.00
             359.00,293.00 336.00,272.00 336.00,272.00
             330.62,275.85 324.73,282.17 320.00,287.00 Z
           M 217.00,275.00
           C 215.20,277.40 208.76,284.77 208.30,287.00
             207.32,291.71 220.13,300.92 224.00,303.00
             224.00,303.00 235.00,289.00 235.00,289.00
             235.00,289.00 217.00,275.00 217.00,275.00 Z
           M 117.00,283.17
           C 117.00,283.17 138.00,302.00 138.00,302.00
             138.00,302.00 183.00,342.17 183.00,342.17
             183.00,342.17 218.00,373.58 218.00,373.58
             218.00,373.58 243.00,395.93 243.00,395.93
             245.45,398.17 250.17,401.17 248.83,405.00
             248.11,407.08 243.92,411.14 242.28,413.00
             242.28,413.00 228.98,428.00 228.98,428.00
             223.10,434.31 217.69,441.03 211.00,446.54
             194.74,459.92 176.84,466.63 156.00,468.09
             152.56,468.33 150.60,469.07 147.00,468.82
             129.52,467.58 117.69,464.86 102.00,456.74
             63.62,436.89 44.82,390.28 54.90,349.00
             59.96,328.27 69.67,314.40 84.02,299.00
             89.42,293.21 99.93,279.65 106.00,276.34
             110.55,276.53 113.68,280.18 117.00,283.17 Z
           M 186.32,313.00
           C 185.44,316.89 197.43,327.59 200.96,326.66
             202.93,326.15 204.96,323.46 206.28,322.00
             209.75,318.14 212.94,315.27 216.00,311.00
             216.00,311.00 200.00,297.00 200.00,297.00
             196.94,299.39 187.11,309.52 186.32,313.00 Z
           M 244.00,299.00
           C 241.53,302.45 233.71,308.99 235.17,312.91
             236.04,315.26 248.33,325.60 251.00,327.83
             252.61,329.16 254.76,331.05 257.00,330.89
             261.20,330.60 267.31,322.57 269.00,319.00
             269.00,319.00 244.00,299.00 244.00,299.00 Z
           M 287.00,321.00
           C 287.00,321.00 309.00,340.00 309.00,340.00
             309.00,340.00 321.98,327.91 321.98,327.91
             321.98,327.91 325.80,322.04 325.80,322.04
             325.80,322.04 321.00,315.83 321.00,315.83
             321.00,315.83 306.00,302.00 306.00,302.00
             299.61,306.57 291.57,314.61 287.00,321.00 Z
           M 212.16,337.00
           C 212.27,339.64 215.18,341.96 217.00,343.58
             222.13,348.11 227.43,353.07 233.00,357.00
             233.00,357.00 249.00,340.00 249.00,340.00
             249.00,340.00 226.00,320.00 226.00,320.00
             222.89,322.71 211.99,333.16 212.16,337.00 Z
           M 286.00,334.58
           C 284.29,333.13 281.38,330.29 279.04,330.34
             275.78,330.40 268.91,339.33 267.00,342.00
             267.00,342.00 280.00,353.15 280.00,353.15
             281.75,354.68 284.55,357.63 287.00,357.66
             290.28,357.71 297.92,349.67 300.00,347.00
             300.00,347.00 286.00,334.58 286.00,334.58 Z
           M 256.00,378.03
           C 258.07,379.77 260.07,381.85 263.00,380.83
             264.75,380.23 275.38,370.61 276.46,368.91
             276.79,367.88 276.96,367.15 276.46,366.00
             275.98,363.34 271.10,359.71 269.00,357.84
             266.69,355.77 262.26,350.89 259.00,351.11
             254.67,351.40 244.86,363.07 243.00,367.00
             243.00,367.00 256.00,378.03 256.00,378.03 Z" />
</svg>
